source/img/icon-vk.svg

<svg width="18" height="10" viewBox="0 0 18 10" fill="none" xmlns="http://www.w3.org/2000/svg">
<path d="M17.6835 9.0311C17.662 8.98536 17.6419 8.94742 17.6233 8.91702C17.3148 8.36934 16.7254 7.69709 15.8553 6.9001L15.837 6.88185L15.8277 6.8729L15.8184 6.86373H15.8091C15.4142 6.49261 15.1642 6.24307 15.0595 6.11532C14.8679 5.87195 14.8249 5.62561 14.9296 5.37601C15.0036 5.18743 15.2815 4.78918 15.7627 4.1807C16.0158 3.85823 16.2163 3.59977 16.3643 3.40506C17.4319 2.00572 17.8948 1.11153 17.7528 0.722125L17.6976 0.631127C17.6606 0.576343 17.5649 0.526225 17.4108 0.480518C17.2564 0.434907 17.059 0.427364 16.8183 0.45776L14.1526 0.475915C14.1094 0.460829 14.0477 0.462235 13.9674 0.480518C13.8872 0.4988 13.847 0.507974 13.847 0.507974L13.8006 0.530827L13.7638 0.558283C13.7329 0.576438 13.699 0.608369 13.6619 0.654012C13.6251 0.699496 13.5942 0.752873 13.5696 0.813699C13.2794 1.54984 12.9494 2.23426 12.5791 2.86693C12.3507 3.24419 12.141 3.57114 11.9495 3.84797C11.7583 4.1247 11.5978 4.32859 11.4684 4.45929C11.3387 4.59011 11.2216 4.69492 11.1165 4.77409C11.0116 4.85329 10.9315 4.88676 10.876 4.87452C10.8204 4.86228 10.7681 4.85013 10.7185 4.83798C10.6322 4.7832 10.5627 4.70869 10.5104 4.6144C10.4578 4.52011 10.4224 4.40143 10.4039 4.25846C10.3854 4.1154 10.3745 3.99234 10.3714 3.88888C10.3685 3.78554 10.3699 3.63938 10.3761 3.4508C10.3826 3.26212 10.3854 3.13446 10.3854 3.06753C10.3854 2.83631 10.39 2.58537 10.3992 2.31464C10.4085 2.04392 10.4161 1.82941 10.4224 1.67139C10.4287 1.51321 10.4316 1.34585 10.4316 1.16941C10.4316 0.992979 10.4207 0.854611 10.3992 0.754184C10.3779 0.653884 10.3453 0.556526 10.3022 0.462139C10.259 0.367849 10.1956 0.294909 10.1125 0.24313C10.0292 0.191414 9.92566 0.150373 9.80243 0.119881C9.47535 0.0469095 9.05885 0.00743537 8.55274 0.0012985C7.40504 -0.0108474 6.66758 0.0622196 6.34053 0.220404C6.21095 0.287238 6.09369 0.378556 5.98884 0.49407C5.87774 0.627962 5.86224 0.70103 5.94245 0.713048C6.31275 0.767736 6.5749 0.89856 6.72918 1.10539L6.78478 1.21499C6.82803 1.29407 6.87121 1.43407 6.91443 1.63479C6.95758 1.83552 6.98543 2.05757 6.99768 2.3008C7.02848 2.74499 7.02848 3.12522 6.99768 3.44153C6.96679 3.75796 6.93761 4.0043 6.90976 4.18073C6.88191 4.35717 6.84029 4.50014 6.78478 4.60961C6.72918 4.71911 6.69219 4.78604 6.67365 4.81034C6.65514 4.83463 6.6397 4.84994 6.62745 4.85595C6.54724 4.88625 6.46383 4.90169 6.37749 4.90169C6.29103 4.90169 6.18618 4.85905 6.06279 4.77383C5.93943 4.68862 5.81141 4.57157 5.67871 4.4225C5.54602 4.27339 5.39637 4.06503 5.22969 3.79737C5.06315 3.52971 4.89036 3.21338 4.7114 2.84836L4.56334 2.58364C4.47078 2.41334 4.34434 2.16538 4.18389 1.83996C4.02335 1.51442 3.88145 1.19952 3.75809 0.895332C3.70878 0.767576 3.6347 0.670314 3.53598 0.603383L3.48965 0.575927C3.45885 0.551635 3.40941 0.525841 3.34159 0.498353C3.27367 0.470897 3.2028 0.451208 3.12869 0.439094L0.592507 0.457249C0.333342 0.457249 0.157496 0.515133 0.0649047 0.630743L0.0278487 0.685432C0.00933695 0.715892 0 0.76454 0 0.831502C0 0.898432 0.0185118 0.980577 0.0555678 1.07784C0.425804 1.93572 0.828427 2.76308 1.26344 3.56004C1.69845 4.35701 2.07647 4.99898 2.39726 5.48539C2.71812 5.97215 3.04517 6.43156 3.37842 6.86338C3.71166 7.29535 3.93225 7.57218 4.04017 7.6938C4.14823 7.81565 4.23311 7.90674 4.2948 7.96756L4.52625 8.18654C4.67434 8.33258 4.89181 8.50748 5.17876 8.71124C5.46578 8.91514 5.78352 9.11586 6.13217 9.31374C6.48088 9.51131 6.88655 9.67253 7.34941 9.79722C7.8122 9.92203 8.26265 9.97212 8.7008 9.94795H9.76528C9.98116 9.92957 10.1447 9.86264 10.2559 9.74713L10.2927 9.70139C10.3175 9.66508 10.3407 9.60867 10.3621 9.53275C10.3837 9.45671 10.3945 9.37294 10.3945 9.28181C10.3882 9.02026 10.4084 8.78454 10.4545 8.57467C10.5007 8.36486 10.5532 8.20668 10.6121 8.10015C10.6708 7.99371 10.7372 7.90389 10.811 7.83108C10.885 7.75811 10.9377 7.71391 10.9686 7.69869C10.9993 7.68338 11.0239 7.673 11.0424 7.66676C11.1905 7.61811 11.3648 7.66523 11.5655 7.80833C11.7661 7.95129 11.9542 8.12783 12.1302 8.33763C12.3061 8.54763 12.5174 8.78323 12.7642 9.04478C13.0111 9.30643 13.227 9.50092 13.4121 9.62887L13.5972 9.73837C13.7207 9.81144 13.8812 9.87837 14.0787 9.93919C14.2758 9.99999 14.4486 10.0152 14.5969 9.98481L16.9664 9.94837C17.2007 9.94837 17.3831 9.91011 17.5124 9.8342C17.6421 9.75816 17.7191 9.67438 17.7439 9.58326C17.7687 9.49203 17.77 9.38854 17.7486 9.27283C17.7266 9.15741 17.705 9.07671 17.6835 9.0311Z" fill="white"/>
</svg>

<svg width="18" height="10" fill="none" xmlns="http://www.w3.org/2000/svg"><path d="M17.683 9.031a1.199 1.199 0 0 0-.06-.114c-.308-.548-.898-1.22-1.768-2.017l-.018-.018-.01-.01-.009-.008h-.009c-.395-.371-.645-.62-.75-.749-.191-.243-.234-.49-.13-.739.075-.189.352-.587.834-1.195.253-.323.453-.581.601-.776 1.068-1.4 1.53-2.293 1.389-2.683l-.055-.09C17.66.575 17.565.525 17.41.48a1.477 1.477 0 0 0-.593-.023l-2.665.018a.35.35 0 0 0-.186.005l-.12.027L13.8.53l-.037.027a.41.41 0 0 0-.102.096.625.625 0 0 0-.092.16c-.29.736-.62 1.42-.99 2.053a19.45 19.45 0 0 1-.63.981c-.192.277-.352.48-.482.611s-.246.236-.351.315c-.105.08-.186.113-.241.1a6.866 6.866 0 0 1-.157-.036.61.61 0 0 1-.209-.224.99.99 0 0 1-.106-.356 3.84 3.84 0 0 1-.033-.37 7.651 7.651 0 0 1 .005-.437c.007-.189.01-.317.01-.383 0-.232.004-.483.013-.753l.023-.644c.007-.158.01-.325.01-.502 0-.176-.011-.314-.033-.415a1.404 1.404 0 0 0-.097-.292.493.493 0 0 0-.19-.219 1.078 1.078 0 0 0-.31-.123A6.347 6.347 0 0 0 8.552 0c-1.146-.01-1.883.062-2.21.221-.13.066-.247.158-.352.273-.111.134-.127.207-.047.219.37.055.633.186.787.392l.056.11c.043.08.086.22.13.42.043.2.07.423.083.666.03.444.03.824 0 1.14a13.4 13.4 0 0 1-.088.74 1.464 1.464 0 0 1-.236.63.158.158 0 0 1-.047.045.702.702 0 0 1-.25.046c-.086 0-.19-.043-.314-.128a2.209 2.209 0 0 1-.384-.351 4.7 4.7 0 0 1-.45-.626 10.86 10.86 0 0 1-.518-.949l-.148-.264c-.092-.17-.219-.419-.38-.744-.16-.326-.302-.64-.425-.945a.603.603 0 0 0-.222-.292L3.49.576a.636.636 0 0 0-.148-.078.993.993 0 0 0-.213-.059L.593.457c-.26 0-.436.058-.528.174L.028.685A.292.292 0 0 0 0 .832c0 .066.019.149.056.246.37.858.772 1.685 1.207 2.482a27.58 27.58 0 0 0 1.134 1.925c.321.487.648.947.981 1.378.334.432.554.71.662.83.108.123.193.214.255.275l.231.219c.148.146.366.32.653.524.287.204.605.405.953.603.349.197.755.359 1.217.483a4.24 4.24 0 0 0 1.352.15h1.064c.216-.017.38-.084.49-.2l.038-.046a.6.6 0 0 0 .07-.168.917.917 0 0 0 .032-.251 2.97 2.97 0 0 1 .06-.707 1.84 1.84 0 0 1 .157-.475 1.166 1.166 0 0 1 .357-.401.608.608 0 0 1 .073-.032c.149-.049.323-.002.524.141.2.143.388.32.564.53.176.21.387.445.634.707.247.261.463.456.648.584l.185.11c.124.072.284.14.482.2.197.061.37.076.518.046l2.37-.037c.234 0 .416-.038.545-.114.13-.076.207-.16.232-.25a.697.697 0 0 0 .005-.311 1.137 1.137 0 0 0-.066-.242z" fill="#fff"/></svg>
